assets/icons/stairs.svg

<svg fill="none" height="25" viewBox="0 0 25 25" width="25"><path clip-rule="evenodd" d="m16.713 9.287a.568.568 0 0 1 .037.037l4.076 4.074h1.431a.5.5 0 1 1 0 1h-1.136v4.727a.482.482 0 0 1 -.011.108.53.53 0 0 1 .01.098v3.74h2.188a.5.5 0 0 1 0 1h-19.605a.5.5 0 0 1 -.5-.5v-16.916a.5.5 0 0 1 .5-.5h3.727v-4.225h-.375a.5.5 0 0 1 0-1h1.097c.155 0 .296.071.387.183l8.175 8.175zm-8.283-2.66v-4.21l3.207 3.207v4.759h-3.206v-3.728zm4.207 4.135v-4.138l3.244 3.242v4.744h-3.231v-3.727a.48.48 0 0 0 -.014-.121zm4.244 4.644v-4.54l3.242 3.242v4.723h-3.244v-3.412zm-12.678-8.25v15.914h15.917v-3.24h-3.74a.5.5 0 0 1 -.5-.5v-3.72h-3.727a.5.5 0 0 1 -.5-.5v-3.727h-3.723a.5.5 0 0 1 -.5-.5v-3.728h-3.227zm1.743-5.727a.5.5 0 1 1 -1 0 .5.5 0 0 1 1 0zm-3.754 22.141a.5.5 0 1 1 -1 0 .5.5 0 0 1 1 0z" fill="#f28102" fill-rule="evenodd"/></svg>

<svg width="25" height="25" viewBox="0 0 25 25" fill="none"><g id="stairs"><path id="backgroundWarningDefault" fill-rule="evenodd" clip-rule="evenodd" d="M16.713 9.287a.568.568 0 0 1 .037.037l4.076 4.074h1.431a.5.5 0 1 1 0 1h-1.136v4.727a.482.482 0 0 1-.011.108.53.53 0 0 1 .01.098v3.74h2.188a.5.5 0 0 1 0 1H3.703a.5.5 0 0 1-.5-.5V6.655a.5.5 0 0 1 .5-.5H7.43V1.93h-.375a.5.5 0 0 1 0-1h1.097c.155 0 .296.071.387.183l8.175 8.175ZM8.43 6.627v-4.21l3.207 3.207v4.759H8.431V6.655l-.001-.028Zm4.207 4.135V6.624l3.244 3.242v4.744H12.65v-3.727a.48.48 0 0 0-.014-.121Zm4.244 4.644v-4.54l3.242 3.242v4.723h-3.244v-3.412l.002-.013ZM4.203 7.156V23.07H20.12v-3.24h-3.74a.5.5 0 0 1-.5-.5V15.61h-3.727a.5.5 0 0 1-.5-.5v-3.727H7.93a.5.5 0 0 1-.5-.5V7.155H4.203Zm1.743-5.727a.5.5 0 1 1-1 0 .5.5 0 0 1 1 0ZM2.192 23.57a.5.5 0 1 1-1 0 .5.5 0 0 1 1 0Z" fill="#F28102"/></g></svg>
